src/lib/packages/icons/src/assets/filled/home-roof-trend-up.svg

<svg width="24" height="24" viewBox="0 0 24 24" fill="none" xmlns="http://www.w3.org/2000/svg">
<path d="M21.477 9.08502L14.0649 2.98907C12.8679 2.00707 11.133 2.00607 9.93598 2.98907L2.52399 9.08404C2.20499 9.34704 2.15796 9.81907 2.42096 10.1401C2.68396 10.4611 3.15799 10.5051 3.47699 10.2431L4.49994 9.40106V18.0001C4.49994 20.2901 5.70994 21.5001 7.99994 21.5001H15.9999C18.2899 21.5001 19.4999 20.2901 19.4999 18.0001V9.40204L20.5229 10.2441C20.6629 10.3591 20.8319 10.4151 20.9999 10.4151C21.2159 10.4151 21.4309 10.322 21.5789 10.142C21.8429 9.82003 21.796 9.34802 21.477 9.08502ZM16.7499 14.5001C16.7499 14.9141 16.4139 15.2501 15.9999 15.2501C15.5859 15.2501 15.2499 14.9141 15.2499 14.5001V13.8101L13.691 15.368C13.148 15.912 12.1979 15.912 11.6529 15.368L10.4739 14.188L8.52997 16.2151C8.38397 16.3611 8.19194 16.4351 7.99994 16.4351C7.80794 16.4351 7.61591 16.3621 7.46991 16.2151C7.17691 15.9221 7.17691 15.4471 7.46991 15.1541L9.49689 13.127C10.0409 12.583 10.992 12.583 11.536 13.127L12.7139 14.306L14.227 12.7481H13.4999C13.0859 12.7481 12.7499 12.4121 12.7499 11.9981C12.7499 11.5841 13.0859 11.2481 13.4999 11.2481H15.9999C16.0979 11.2481 16.1949 11.2681 16.2869 11.3061C16.4699 11.3821 16.6159 11.5281 16.6929 11.7121C16.7309 11.8041 16.7509 11.9011 16.7509 11.9991V14.5001H16.7499Z" fill="currentColor"/>
</svg>

<svg xmlns="http://www.w3.org/2000/svg" width="24" height="24" fill="none"><path fill="currentColor" d="m21.477 9.085-7.412-6.096a3.26 3.26 0 0 0-4.129 0L2.524 9.084a.751.751 0 0 0 .953 1.16L4.5 9.4V18c0 2.29 1.21 3.5 3.5 3.5h8c2.29 0 3.5-1.21 3.5-3.5V9.401l1.023.842a.749.749 0 0 0 1.056-.102.751.751 0 0 0-.102-1.057ZM16.75 14.5a.75.75 0 0 1-1.5 0v-.69l-1.559 1.558c-.543.544-1.493.544-2.038 0l-1.18-1.18-1.943 2.027a.748.748 0 0 1-1.06 0 .75.75 0 0 1 0-1.06l2.027-2.028c.544-.544 1.495-.544 2.039 0l1.178 1.179 1.513-1.558H13.5a.75.75 0 0 1 0-1.5H16a.75.75 0 0 1 .693.464.75.75 0 0 1 .058.287V14.5h-.001Z"/></svg>
